X:11
T:Morning Star
R:hornpipe
H:Used as tune for Shropshire Bedlams' "Morning Star"
H:The Hounds use the Bledington version rather than the one transcribed
H:in John Kirkpatrick's "Opus Pocus"
C:Traditional.
M:4/4
L:1/8
K:G
GA | BcBG E2 FG | ABAF D2 GA | BcBG E2 AF | D2 G2 G2 :|
GA | B2 B2 d2 d2 | egfe dcBA | GABc d2d2 | egfe d4 |
B2 Bc d2d2 | egfe dB G2 | ABcA FGAF | D2 G2 G2 :|

